!!!COM: Bach, Johann Sebastian
!!!OPR: Six Concerts Avec plusieurs ... le prince regnant d'Anhalt-Coethen
!!!OTL: Brandenburgische Konzerte F
!!!XEN: Brandenburg Concerto No. 1 in F major
!!!OMV: Movement 2.
!!!SCT: BWV 1046
!!!YEC: Copyright 1994, Center for Computer Assisted Research in the Humanities
!!!YEM: Rights to all derivative electronic formats reserved.
!!!YEM: Refer to licensing agreement for further details.
!! For the following instrumentation: Oboe I, II & III,
!!    Fagotto, Violino Piccolo, Violino I, Violino II, Viola,
!!    Violoncello, Continuo, Violone grosso
!! Adagio.
**kern	**kern	**kern	**kern	**kern	**kern	**kern	**kern	**kern	**kern	**kern
*ICstr	*ICklav	*ICstr	*ICstr	*ICstr	*ICstr	*ICstr	*ICww	*ICww	*ICww	*ICww
*Icbass	*Icemba	*Icello	*Iviola	*Ivioln	*Ivioln	*Iviolp	*Ifagot	*Ioboe	*Ioboe	*Ioboe
*IGcont	*IGcont	*	*	*	*	*	*	*	*	*
!vgroso	!contin	!'cello	!viola	!v'lin2	!v'lin1	!v'linP	!fagot	!oboe3	!oboe2	!oboe1
*k[b-]	*k[b-]	*k[b-]	*k[b-]	*k[b-]	*k[b-]	*k[f#c#]	*k[b-]	*k[b-]	*k[b-]	*k[b-]
*a:	*a:	*a:	*a:	*a:	*a:	*a:	*a:	*a:	*a:	*a:
*M3/4	*M3/4	*M3/4	*M3/4	*M3/4	*M3/4	*M3/4	*M3/4	*M3/4	*M3/4	*M3/4
*MM20	*MM20	*MM20	*MM20	*MM20	*MM20	*MM20	*MM20	*MM20	*MM20	*MM20
*clefF4	*clefF4	*clefF4	*clefC3	*clefG2	*clefG2	*clefG2	*clefF4	*clefG2	*clefG2	*clefG2
=1-	=1-	=1-	=1-	=1-	=1-	=1-	=1-	=1-	=1-	=1-
4AA/	4AA/	4AA/	(8e\L	(8a/L	(8cc#\L	(8cc#/L	4AA/	4cc#\	4ee\	[4aa\
.	.	.	8e\	8a/	8cc#\	8cc#/	.	.	.	.
4r	4r	4r	8e\	8a/	8cc#\	8cc#/	4r	4r	4r	8aa\L]
.	.	.	8e\	8a/	8cc#\	8cc#/	.	.	.	(16bb-\LL
.	.	.	.	.	.	.	.	.	.	16aa\JJ
4r	4r	4r	8e\	8a/	8cc#\	8cc#/	4r	4r	4r	16gg\LL
.	.	.	.	.	.	.	.	.	.	16ff\
.	.	.	8e\J)	8a/J)	8cc#\J)	8cc#/J)	.	.	.	16ee\
.	.	.	.	.	.	.	.	.	.	32gg\LLL
.	.	.	.	.	.	.	.	.	.	32ff\JJJ)
=2	=2	=2	=2	=2	=2	=2	=2	=2	=2	=2
4AA/	4AA/	4AA/	(8e\L	(8a/L	(8cc#\L	(8cc#/L	4AA/	4e/	4cc#\	[4gg\
.	.	.	8e\	8a/	8cc#\	8cc#/	.	.	.	.
4r	4r	4r	8e\	8a/	8cc#\	8cc#/	4r	4r	4r	8gg\L]
.	.	.	8e\	8a/	8cc#\	8cc#/	.	.	.	(16aa\LL
.	.	.	.	.	.	.	.	.	.	16bb-\JJ
4r	4r	4r	8e\	8a/	8cc#\	8cc#/	4r	4r	4r	16aa\LL
.	.	.	.	.	.	.	.	.	.	16gg\
.	.	.	8e\J)	8a/J)	8cc#\J)	8cc#/J)	.	.	.	16ff\
.	.	.	.	.	.	.	.	.	.	32gg\LLL
.	.	.	.	.	.	.	.	.	.	32ee\JJJ)
=3	=3	=3	=3	=3	=3	=3	=3	=3	=3	=3
4AA/	4AA/	4AA/	(8d\L	(8bn\L	(8dd\L	(8dd\L	4AA/	4g#/	4bn\	(32ff\LLL
.	.	.	.	.	.	.	.	.	.	32gg\
.	.	.	.	.	.	.	.	.	.	32ff\
.	.	.	.	.	.	.	.	.	.	32ee\JJJ
.	.	.	8d\	8b\	8dd\	8dd\	.	.	.	16dd\
.	.	.	.	.	.	.	.	.	.	32ee\LLL
.	.	.	.	.	.	.	.	.	.	32cc#\JJJ
4r	4r	4r	8d\	8b\	8dd\	8dd\	4r	4r	4r	8.dd\L
.	.	.	8d\	8b\	8dd\	8dd\	.	.	.	.
.	.	.	.	.	.	.	.	.	.	32cc#\LLL
.	.	.	.	.	.	.	.	.	.	32dd\JJJ
4r	4r	4r	8d\	8b\	8dd\	8dd\	4r	4r	4r	16.ddT\LL
.	.	.	.	.	.	.	.	.	.	32cc#\LLL
.	.	.	8d\J)	8b\J)	8dd\J)	8dd\J)	.	.	.	32dd\
.	.	.	.	.	.	.	.	.	.	32ee\JJJ
.	.	.	.	.	.	.	.	.	.	16cc#\JJ
=4	=4	=4	=4	=4	=4	=4	=4	=4	=4	=4
(8G\L	(8G\L	(8G\L	4a\	4cc#\	4ee\	4een\	(8GG/L	4e/	4a/	8.cc#t\L)
8G\	8G\	8G\	.	.	.	.	8GG/	.	.	.
.	.	.	.	.	.	.	.	.	.	16bb-\Jk
8F\	8F\	8F\	4r	4r	4r	4r	8FF/	4f/	8a/L	(16aa\LL
.	.	.	.	.	.	.	.	.	.	32gg\LLL
.	.	.	.	.	.	.	.	.	.	32ff\
8F\	8F\	8F\	.	.	.	.	8FF/	.	8bn/J	32ee\
.	.	.	.	.	.	.	.	.	.	32dd\
.	.	.	.	.	.	.	.	.	.	32cc#\
.	.	.	.	.	.	.	.	.	.	32dd\JJJ
8E\	8E\	8E\	4r	4r	4r	4r	8EE/	4g/	4cc#\	16ee\LL
.	.	.	.	.	.	.	.	.	.	32ff\LLL
.	.	.	.	.	.	.	.	.	.	32gg\JJJ
8E\J)	8E\J)	8E\J)	.	.	.	.	8EE/J)	.	.	16ff\
.	.	.	.	.	.	.	.	.	.	32gg\LLL
.	.	.	.	.	.	.	.	.	.	32ee\JJJ)
=5	=5	=5	=5	=5	=5	=5	=5	=5	=5	=5
4D\	4D\	4D\	4f\	4a/	4dd\	[4ddd\	4DD/	(8a/L	(8dd\L	(8ff\L
.	.	.	.	.	.	.	.	8a/	8dd\	8ff\
4r	4r	4r	4r	4r	4r	8ddd\L]	4r	8a/	8dd\	8ff\
.	.	.	.	.	.	(16eee-\LL	.	8a/	8dd\	8ff\
.	.	.	.	.	.	16ddd\JJ	.	.	.	.
4r	4r	4r	4r	4r	4r	16ccc\LL	4r	8a/	8dd\	8ff\
.	.	.	.	.	.	16bb-\	.	.	.	.
.	.	.	.	.	.	16aan\	.	8a/J)	8dd\J)	8ff\J)
.	.	.	.	.	.	32ccc\LLL	.	.	.	.
.	.	.	.	.	.	32bb-\JJJ)	.	.	.	.
=6	=6	=6	=6	=6	=6	=6	=6	=6	=6	=6
4D\	4D\	4D\	4A/	4f#/	4dd\	[4ccc\	4D\	(8a/L	(8dd\L	(8ff#\L
.	.	.	.	.	.	.	.	8a/	8dd\	8ff#\
4r	4r	4r	4r	4r	4r	8ccc\L]	4r	8a/	8dd\	8ff#\
.	.	.	.	.	.	(16ddd\LL	.	8a/	8dd\	8ff#\
.	.	.	.	.	.	16eee-\JJ	.	.	.	.
4r	4r	4r	4r	4r	4r	16ddd\LL	4r	8a/	8dd\	8ff#\
.	.	.	.	.	.	16ccc\	.	.	.	.
.	.	.	.	.	.	16bb-\	.	8a/J)	8dd\J)	8ff#\J)
.	.	.	.	.	.	32ccc\LLL	.	.	.	.
.	.	.	.	.	.	32aan\JJJ)	.	.	.	.
=7	=7	=7	=7	=7	=7	=7	=7	=7	=7	=7
4D\	4D\	4D\	4c#\	4e/	4ee\	(32bb-\LLL	4D\	(8g/L	(8ee\L	(8gg\L
.	.	.	.	.	.	32ccc\	.	.	.	.
.	.	.	.	.	.	32bb-\	.	.	.	.
.	.	.	.	.	.	32aan\JJJ	.	.	.	.
.	.	.	.	.	.	16gg\	.	8g/	8ee\	8gg\
.	.	.	.	.	.	32aan\LLL	.	.	.	.
.	.	.	.	.	.	32ff#\JJJ	.	.	.	.
4r	4r	4r	4r	4r	4r	8.gg\L	4r	8g/	8ee\	8gg\
.	.	.	.	.	.	.	.	8g/	8ee\	8gg\
.	.	.	.	.	.	32ff#\LLL	.	.	.	.
.	.	.	.	.	.	32gg\JJJ	.	.	.	.
4r	4r	4r	4r	4r	4r	16.ggT\LL	4r	8g/	8ee\	8gg\
.	.	.	.	.	.	32ff#\LLL	.	.	.	.
.	.	.	.	.	.	32gg\	.	8g/J)	8ee\J)	8gg\J)
.	.	.	.	.	.	32aan\JJJ	.	.	.	.
.	.	.	.	.	.	16ff#\JJ	.	.	.	.
=8	=8	=8	=8	=8	=8	=8	=8	=8	=8	=8
(8C/L	(8C/L	(8C/L	4a\	4d/	4ff#\	8.ff#t\L)	(8C/L	4dd\	4ff#\	4aa\
8C/	8C/	8C/	.	.	.	.	8C/	.	.	.
.	.	.	.	.	.	16eee-\Jk	.	.	.	.
8BB-/	8BB-/	8BB-/	4b-\	8dd\L	4gg\	(16ddd\LL	8BB-/	4r	4r	4r
.	.	.	.	.	.	32ccc\LLL	.	.	.	.
.	.	.	.	.	.	32bb-\	.	.	.	.
8BB-/	8BB-/	8BB-/	.	8ee\J	.	32aan\	8BB-/	.	.	.
.	.	.	.	.	.	32gg\	.	.	.	.
.	.	.	.	.	.	32ff#\	.	.	.	.
.	.	.	.	.	.	32gg\JJJ	.	.	.	.
8AA/	8AA/	8AA/	4cc\	4ff#\	4aa\	16aan\LL	8AA/	4r	4r	4r
.	.	.	.	.	.	32bb-\LLL	.	.	.	.
.	.	.	.	.	.	32ccc\JJJ	.	.	.	.
8AA/J)	8AA/J)	8AA/J)	.	.	.	16bb-\	8AA/J)	.	.	.
.	.	.	.	.	.	32ccc\LLL	.	.	.	.
.	.	.	.	.	.	32aan\JJJ)	.	.	.	.
=9	=9	=9	=9	=9	=9	=9	=9	=9	=9	=9
4GG\ [4G\	4GG\ [4G\	[4G\	4dd\	4gg\	4bb-\	4bb-\	[4G\	(8b-/L	(8dd\L	(8gg\L
.	.	.	.	.	.	.	.	8a/J)	8cc\J)	8ff#\J)
8G\L]	8G\L]	8G\L]	(8d\L	(8g/L	(8b-/L	(8b-/L	8G\L]	4b-\	4dd\	4gg\
(16A-\LL	(16A-\LL	(16A-\LL	8c\J)	8f#/J)	8a/J)	8an/J)	(16A-\LL	.	.	.
16G\JJ	16G\JJ	16G\JJ	.	.	.	.	16G\JJ	.	.	.
16F\LL	16F\LL	16F\LL	4d\	4g/	4b-\	4b-/	16F\LL	4r	4r	4r
16E-\	16E-\	16E-\	.	.	.	.	16E-\	.	.	.
16D\	16D\	16D\	.	.	.	.	16D\	.	.	.
32F\LLL	32F\LLL	32F\LLL	.	.	.	.	32F\LLL	.	.	.
32E-\JJJ)	32E-\JJJ)	32E-\JJJ)	.	.	.	.	32E-\JJJ)	.	.	.
=10	=10	=10	=10	=10	=10	=10	=10	=10	=10	=10
[4F\	[4F\	[4F\	4r	4r	4r	4r	[4F\	(8bn/L	(8dd\L	(8gg\L
.	.	.	.	.	.	.	.	8a/J)	8cc\J)	8ff\J)
8F\L]	8F\L]	8F\L]	(8d\L	(8g/L	(8bn/L	(8bn/L	8F\L]	4b\	4dd\	4gg\
(16G\LL	(16G\LL	(16G\LL	8c\J)	8f/J)	8a/J)	8an/J)	(16G\LL	.	.	.
16A-\JJ	16A-\JJ	16A-\JJ	.	.	.	.	16A-\JJ	.	.	.
16G\LL	16G\LL	16G\LL	4d\	4g/	4b\	4bn/	16G\LL	4r	4r	4r
16F\	16F\	16F\	.	.	.	.	16F\	.	.	.
16E-\	16E-\	16E-\	.	.	.	.	16E-\	.	.	.
32F\LLL	32F\LLL	32F\LLL	.	.	.	.	32F\LLL	.	.	.
32D\JJJ)	32D\JJJ)	32D\JJJ)	.	.	.	.	32D\JJJ)	.	.	.
=11	=11	=11	=11	=11	=11	=11	=11	=11	=11	=11
[4E-\	[4E-\	[4E-\	4r	4r	4r	4r	[4E-\	(8cc\L	(8ee-\L	(8gg\L
.	.	.	.	.	.	.	.	8bn\J)	8dd\J)	8ff\J)
16E-\LL]	16E-\LL]	16E-\LL]	(8e-\L	(8g/L	(8cc\L	(8cc/L	16E-\LL]	4cc\	4ee-\	4gg\
(16F\	(16F\	(16F\	.	.	.	.	(16F\	.	.	.
16E-\	16E-\	16E-\	8d\J)	8f/J)	8bn\J)	8bn/J)	16E-\	.	.	.
16D\JJ	16D\JJ	16D\JJ	.	.	.	.	16D\JJ	.	.	.
16C/LL	16C/LL	16C/LL	4e-\	4g/	4cc\	4cc/	16C/LL	4r	4r	4r
16D/	16D/	16D/	.	.	.	.	16D/	.	.	.
16BBn/	16BBn/	16BBn/	.	.	.	.	16BBn/	.	.	.
16C/JJ)	16C/JJ)	16C/JJ)	.	.	.	.	16C/JJ)	.	.	.
=12	=12	=12	=12	=12	=12	=12	=12	=12	=12	=12
(8GG#/L	(8GG#/L	(8GG#/L	4r	4r	4r	4r	(8GG#/L	4bn\	4dd\	[4ff\
8GG#/	8GG#/	8GG#/	.	.	.	.	8GG#/	.	.	.
8GG#/	8GG#/	8GG#/	4bn\	4dd\	4ff\	[4ff\	8GG#/	4r	4r	16ff\LL]
.	.	.	.	.	.	.	.	.	.	(16gg\
8GG#/	8GG#/	8GG#/	.	.	.	.	8GG#/	.	.	16ff\
.	.	.	.	.	.	.	.	.	.	16ee\JJ
8GG#/	8GG#/	8GG#/	4r	4r	4r	16ff\LL]	8GG#/	4r	4r	16dd\LL
.	.	.	.	.	.	(16gg\	.	.	.	16cc\
8GG#/J)	8GG#/J)	8GG#/J)	.	.	.	16ff\	8GG#/J)	.	.	16bn\
.	.	.	.	.	.	16een\JJ	.	.	.	32dd\LLL
.	.	.	.	.	.	.	.	.	.	32cc\JJJ)
=13	=13	=13	=13	=13	=13	=13	=13	=13	=13	=13
(8EE/L	(8EE/L	(8EE/L	4r	4r	4r	16dd/LL	(8EE/L	4g#/	4bn\	[4dd\
.	.	.	.	.	.	16cc/	.	.	.	.
8EE/	8EE/	8EE/	.	.	.	16bn/	8EE/	.	.	.
.	.	.	.	.	.	32dd/LLL	.	.	.	.
.	.	.	.	.	.	32cc/JJJ)	.	.	.	.
8EE/	8EE/	8EE/	4g#\	4bn\	4dd\	[4dd\	8EE/	4r	4r	8dd\L]
8EE/	8EE/	8EE/	.	.	.	.	8EE/	.	.	(16ee\LL
.	.	.	.	.	.	.	.	.	.	16ff\JJ
8EE/	8EE/	8EE/	4r	4r	4r	8dd\L]	8EE/	4r	4r	16ee\LL
.	.	.	.	.	.	.	.	.	.	16dd\
8EE/J)	8EE/J)	8EE/J)	.	.	.	(16een\LL	8EE/J)	.	.	16cc\
.	.	.	.	.	.	16ff\JJ	.	.	.	32dd\LLL
.	.	.	.	.	.	.	.	.	.	32bn\JJJ)
=14	=14	=14	=14	=14	=14	=14	=14	=14	=14	=14
(8EE/L	(8EE/L	(8EE/L	4r	4r	4r	16een/LL	(8EE/L	4e/	4a/	(32cc\LLL
.	.	.	.	.	.	.	.	.	.	32dd\
.	.	.	.	.	.	16dd/	.	.	.	32cc\
.	.	.	.	.	.	.	.	.	.	32bn\
8EE/	8EE/	8EE/	.	.	.	16cc/	8EE/	.	.	32a\
.	.	.	.	.	.	.	.	.	.	32b\
.	.	.	.	.	.	32dd/LLL	.	.	.	32g#\
.	.	.	.	.	.	32bn/JJJ)	.	.	.	32a\JJJ)
8DD#/	8DD#/	8DD#/	4f#\	4a/	4cc\	(16cc/LL	8DD#/	4r	4r	[4aT/
.	.	.	.	.	.	16dd/	.	.	.	.
8DD#/	8DD#/	8DD#/	.	.	.	16cc/	8DD#/	.	.	.
.	.	.	.	.	.	16bn/JJ	.	.	.	.
8DD#/	8DD#/	8DD#/	4r	4r	4r	16an/LL	8DD#/	4r	4r	(16a/LL]
.	.	.	.	.	.	16bn/	.	.	.	16g#/
8DD#/J)	8DD#/J)	8DD#/J)	.	.	.	16g#/	8DD#/J)	.	.	16a/
.	.	.	.	.	.	16an/JJ)	.	.	.	32b/LLL
.	.	.	.	.	.	.	.	.	.	32g#/JJJ)
=15	=15	=15	=15	=15	=15	=15	=15	=15	=15	=15
(8D/L	(8D/L	(8D/L	4e\	4g#/	4bn\	8bn/L	(8D/L	4e/	8bn/L	8.g#t\L
8D/	8D/	8D/	.	.	.	8en/J	8D/	.	8g#/J	.
.	.	.	.	.	.	.	.	.	.	(16ff\Jk
8C/	8C/	8C/	4r	4r	4r	(16een/LL	8C/	8e/L	4a/	16ee\LL
.	.	.	.	.	.	32ff/LLL	.	.	.	32dd\LLL
.	.	.	.	.	.	32een/	.	.	.	32cc\
8C/	8C/	8C/	.	.	.	32dd/	8C/	8f#/J	.	32bn\
.	.	.	.	.	.	32cc/	.	.	.	32a\
.	.	.	.	.	.	32bn/	.	.	.	32g#\
.	.	.	.	.	.	32an/JJJ	.	.	.	32a\JJJ
8BBn/	8BBn/	8BBn/	4r	4r	4r	16g#/LL	8BBn/	4g#/	4d/	16b\LL
.	.	.	.	.	.	32an/LLL	.	.	.	32cc\LLL
.	.	.	.	.	.	32bn/JJJ	.	.	.	32dd\JJJ
8BB/J)	8BB/J)	8BB/J)	.	.	.	16an/	8BB/J)	.	.	16cc\
.	.	.	.	.	.	32bn/LLL	.	.	.	32dd\LLL
.	.	.	.	.	.	32g#/JJJ	.	.	.	32b\JJJ)
=16	=16	=16	=16	=16	=16	=16	=16	=16	=16	=16
(8AA/L	(8AA/L	(8AA/L	4e\	4cc\	4cc\	8.an\L)	(8AA/L	4e/	4a/	(4.cc\
8AA/	8AA/	8AA/	.	.	.	.	8AA/	.	.	.
.	.	.	.	.	.	16bb-\Jk	.	.	.	.
8BBn/	8BBn/	8BBn/	4d\	4ff\	4dd\	(16aan\LL	8BBn/	4r	4r	.
.	.	.	.	.	.	32gg\LLL	.	.	.	.
.	.	.	.	.	.	32ff\	.	.	.	.
8BB/	8BB/	8BB/	.	.	.	32een\	8BB/	.	.	8bn\)
.	.	.	.	.	.	32dd\	.	.	.	.
.	.	.	.	.	.	32cc#\	.	.	.	.
.	.	.	.	.	.	32dd\JJJ	.	.	.	.
8C#/	8C#/	8C#/	4a\	4ee\	4ee\	16een\LL	8C#/	4r	4r	(8b-/L
.	.	.	.	.	.	32ff\LLL	.	.	.	.
.	.	.	.	.	.	32gg\JJJ	.	.	.	.
8C#/J)	8C#/J)	8C#/J)	.	.	.	16ff\	8C#/J)	.	.	8a/J)
.	.	.	.	.	.	32gg\LLL	.	.	.	.
.	.	.	.	.	.	32een\JJJ)	.	.	.	.
=17	=17	=17	=17	=17	=17	=17	=17	=17	=17	=17
(8D\L	(8D\L	(8D\L	4a\	4dd\	4ff\	(4.ff\	(8D\L	4f/	4dd\	4a/
8D\	8D\	8D\	.	.	.	.	8D\	.	.	.
8E\	8E\	8E\	4r	4r	4r	.	8E\	2a/	2cc\	[2aa\
8E\	8E\	8E\	.	.	.	8een\)	8E\	.	.	.
8F#\	8F#\	8F#\	4r	4r	4r	(8ee-\L	8F#\	.	.	.
8F#\J)	8F#\J)	8F#\J)	.	.	.	8dd\J)	8F#\J)	.	.	.
=18	=18	=18	=18	=18	=18	=18	=18	=18	=18	=18
(8C/L	(8C/L	(8C/L	4f#\	4a/	4dd\	4dd\	(8C/L	4f#/	4a/	16aa\LL]
.	.	.	.	.	.	.	.	.	.	16gg#\
8C/	8C/	8C/	.	.	.	.	8C/	.	.	(16aa\
.	.	.	.	.	.	.	.	.	.	16ff#\JJ)
8BBn/	8BBn/	8BBn/	(8bn\L	(8dd\L	4.ddd\	[4ddd\	8BBn/	4d/	4bn\	(16gg\LL
.	.	.	.	.	.	.	.	.	.	16ee\)
8BB/	8BB/	8BB/	8g#\J)	8bn\J)	.	.	8BB/	.	.	(16ff\
.	.	.	.	.	.	.	.	.	.	16dd#\JJ)
8AA/	8AA/	8AA/	(8a\L	4ee\	.	(16ddd\LL]	8AA/	4a/	4e/	[4ee\
.	.	.	.	.	.	16bbn\)	.	.	.	.
8AA/J)	8AA/J)	8AA/J)	8e\J)	.	8ccc\	(16ccc\	8AA/J)	.	.	.
.	.	.	.	.	.	16aan\JJ)	.	.	.	.
=19	=19	=19	=19	=19	=19	=19	=19	=19	=19	=19
(8DD/L	(8DD/L	(8DD/L	(8f\L	(8dd\L	(8bb-\L	16bb-\LL	(8DD/L	4f/	4d/	8ee\L]
.	.	.	.	.	.	16gg#\	.	.	.	.
8DD/	8DD/	8DD/	8a\J)	8cc\J)	8aa\J)	16aan\	8DD/	.	.	8ff\J
.	.	.	.	.	.	16bbn\JJ	.	.	.	.
8EE/	8EE/	8EE/	4e\	4bn\	4.gg#t\	4.gg#t\	8EE/	4e/	4d/	4.bnt\
8EE/	8EE/	8EE/	.	.	.	.	8EE/	.	.	.
8EE/	8EE/	8EE/	4bn\	4ee\	.	.	8EE/	4e/	4d/	.
8EE/J)	8EE/J)	8EE/J)	.	.	8aa\	8aan\	8EE/J)	.	.	8a/
=20	=20	=20	=20	=20	=20	=20	=20	=20	=20	=20
4AA\ [4A\	4AA\ [4A\	[4A\	(8cc\L	(8ee\L	(8aa\L	(8aan\L	[4A\	4e/	4c/	4a/
.	.	.	8bn\J)	8dd\J)	8gg#\J)	8gg#\J)	.	.	.	.
8A\L]	8A\L]	8A\L]	4cc\	4ee\	4aa\	4aan\	8A\L]	(8e/L	(8a/L	(8cc\L
(16B-\LL	(16B-\LL	(16B-\LL	.	.	.	.	(16B-\LL	8d/J)	8g#/J)	8bn\J)
16A\JJ	16A\JJ	16A\JJ	.	.	.	.	16A\JJ	.	.	.
16G\LL	16G\LL	16G\LL	4r	4r	4r	4r	16G\LL	4e/	4a/	4cc\
16F\	16F\	16F\	.	.	.	.	16F\	.	.	.
16E\	16E\	16E\	.	.	.	.	16E\	.	.	.
32G\LLL	32G\LLL	32G\LLL	.	.	.	.	32G\LLL	.	.	.
32F\JJJ)	32F\JJJ)	32F\JJJ)	.	.	.	.	32F\JJJ)	.	.	.
=21	=21	=21	=21	=21	=21	=21	=21	=21	=21	=21
[4G\	[4G\	[4G\	(8cc#\L	(8ee\L	(8aa\L	(8aan\L	[4G\	4r	4r	4r
.	.	.	8bn\J)	8dd\J)	8gg\J)	8gg\J)	.	.	.	.
8G\L]	8G\L]	8G\L]	4cc#\	4ee\	4aa\	4aan\	8G\L]	(8e/L	(8a/L	(8cc#\L
(16A\LL	(16A\LL	(16A\LL	.	.	.	.	(16A\LL	8d/J)	8g/J)	8bn\J)
16B-\JJ	16B-\JJ	16B-\JJ	.	.	.	.	16B-\JJ	.	.	.
16A\LL	16A\LL	16A\LL	4r	4r	4r	4r	16A\LL	4e/	4a/	4cc#\
16G\	16G\	16G\	.	.	.	.	16G\	.	.	.
16F\	16F\	16F\	.	.	.	.	16F\	.	.	.
32G\LLL	32G\LLL	32G\LLL	.	.	.	.	32G\LLL	.	.	.
32E\JJJ)	32E\JJJ)	32E\JJJ)	.	.	.	.	32E\JJJ)	.	.	.
=22	=22	=22	=22	=22	=22	=22	=22	=22	=22	=22
[4F\	[4F\	[4F\	(8dd\L	(8ff\L	(8aa\L	(8aan\L	[4F\	4r	4r	4r
.	.	.	8cc#\J)	8ee\J)	8gg\J)	8gg\J)	.	.	.	.
16F\LL]	16F\LL]	16F\LL]	4dd\	4ff\	4aa\	4aan\	16F\LL]	(8f/L	(8a/L	(8dd\L
(16G\	(16G\	(16G\	.	.	.	.	(16G\	.	.	.
16F\	16F\	16F\	.	.	.	.	16F\	8e/J)	8g/J)	8cc#\J)
16E\JJ	16E\JJ	16E\JJ	.	.	.	.	16E\JJ	.	.	.
16D\LL	16D\LL	16D\LL	4r	4r	4r	4r	16D\LL	4f/	4a/	4dd\
16E\	16E\	16E\	.	.	.	.	16E\	.	.	.
16C#\	16C#\	16C#\	.	.	.	.	16C#\	.	.	.
16D\JJ)	16D\JJ)	16D\JJ)	.	.	.	.	16D\JJ)	.	.	.
=23	=23	=23	=23	=23	=23	=23	=23	=23	=23	=23
(8GG/L	(8GG/L	(8GG/L	4dd\	4gg\	4bb-\	[4bb-\	(8GG/L	4r	4r	4r
8GG/	8GG/	8GG/	.	.	.	.	8GG/	.	.	.
8GG/	8GG/	8GG/	4r	4r	4r	16bb-\LL]	8GG/	4dd\	4gg\	([4bb-\
.	.	.	.	.	.	(16ccc\	.	.	.	.
8GG/	8GG/	8GG/	.	.	.	16bb-\	8GG/	.	.	.
.	.	.	.	.	.	16aan\JJ	.	.	.	.
8GG/	8GG/	8GG/	4r	4r	4r	16gg\LL	8GG/	4r	4r	16bb-\LL]
.	.	.	.	.	.	16ff\	.	.	.	16ccc\
8GG/J)	8GG/J)	8GG/J)	.	.	.	16een\	8GG/J)	.	.	16bb-\
.	.	.	.	.	.	32gg\LLL	.	.	.	16aa\JJ
.	.	.	.	.	.	32ff\JJJ)	.	.	.	.
=24	=24	=24	=24	=24	=24	=24	=24	=24	=24	=24
(8EE/L	(8EE/L	(8EE/L	4b-\	4cc#\	4gg\	[4gg\	(8EE/L	4r	4r	16gg\LL
.	.	.	.	.	.	.	.	.	.	16ff\
8EE/	8EE/	8EE/	.	.	.	.	8EE/	.	.	16ee\
.	.	.	.	.	.	.	.	.	.	32gg\LLL
.	.	.	.	.	.	.	.	.	.	32ff\JJJ)
8C#/	8C#/	8C#/	4r	4r	4r	8gg\L]	8C#/	4a/	4ee\	[4gg\
8C#/	8C#/	8C#/	.	.	.	(16aan\LL	8C#/	.	.	.
.	.	.	.	.	.	16bb-\JJ	.	.	.	.
8AA/	8AA/	8AA/	4r	4r	4r	16aan\LL	8AA/	4r	4r	8gg\L]
.	.	.	.	.	.	16gg\	.	.	.	.
8AA/J)	8AA/J)	8AA/J)	.	.	.	16ff\	8AA/J)	.	.	(16aa\LL
.	.	.	.	.	.	32gg\LLL	.	.	.	16bb-\JJ
.	.	.	.	.	.	32een\JJJ)	.	.	.	.
=25	=25	=25	=25	=25	=25	=25	=25	=25	=25	=25
(8D/L	(8D/L	(8D/L	4a\	4dd\	4ff\	(32ff\LLL	(8D/L	4r	4r	16aa\LL
.	.	.	.	.	.	32gg\	.	.	.	.
.	.	.	.	.	.	32ff\	.	.	.	16gg\
.	.	.	.	.	.	32een\	.	.	.	.
8D/	8D/	8D/	.	.	.	32dd\	8D/	.	.	16ff\
.	.	.	.	.	.	32een\	.	.	.	.
.	.	.	.	.	.	32cc#\	.	.	.	32gg\LLL
.	.	.	.	.	.	32dd\JJJ)	.	.	.	32ee\JJJ)
8GG#/	8GG#/	8GG#/	4r	4r	4r	[4dd\	8GG#/	4bn\	4dd\	(16ff\LL
.	.	.	.	.	.	.	.	.	.	16gg\
8GG#/	8GG#/	8GG#/	.	.	.	.	8GG#/	.	.	16ff\
.	.	.	.	.	.	.	.	.	.	16ee\JJ
8GG#/	8GG#/	8GG#/	4r	4r	4r	(16.dd\LL]	8GG#/	4r	4r	16dd\LL
.	.	.	.	.	.	.	.	.	.	16ee\
.	.	.	.	.	.	32cc#\kkk	.	.	.	.
8GG#/J)	8GG#/J)	8GG#/J)	.	.	.	16dd\	8GG#/J)	.	.	16cc#\
.	.	.	.	.	.	32een\LLL	.	.	.	16dd\JJ)
.	.	.	.	.	.	32cc#\JJJ)	.	.	.	.
=26	=26	=26	=26	=26	=26	=26	=26	=26	=26	=26
(8G\L	(8G\L	(8G\L	4a\	(8ee\L	4ee\	8.cc#t\L	(8G\L	4a/	4cc#\	8ee\L
8G\	8G\	8G\	.	8cc#\J)	.	.	8G\	.	.	8a\J
.	.	.	.	.	.	16bb-\Jk	.	.	.	.
8F\	8F\	8F\	(8a\L	4dd\	4ff\	(16aan\LL	8F\	4r	4r	(16aa\LL
.	.	.	.	.	.	32gg\LLL	.	.	.	32bb-\LLL
.	.	.	.	.	.	32ff\	.	.	.	32aa\
8F\	8F\	8F\	8bn\J)	.	.	32een\	8F\	.	.	32gg\
.	.	.	.	.	.	32dd\	.	.	.	32ff\
.	.	.	.	.	.	32cc#\	.	.	.	32ee\
.	.	.	.	.	.	32dd\JJJ	.	.	.	32dd\JJJ
8E\	8E\	8E\	4cc#\	4g/	4gg\	16een\LL	8E\	4r	4r	16cc#\LL
.	.	.	.	.	.	32ff\LLL	.	.	.	32dd\LLL
.	.	.	.	.	.	32gg\JJJ	.	.	.	32ee\JJJ
8E\J)	8E\J)	8E\J)	.	.	.	16ff\	8E\J)	.	.	16dd\
.	.	.	.	.	.	32gg\LLL	.	.	.	32ee\LLL
.	.	.	.	.	.	32een\JJJ)	.	.	.	32cc#\JJJ)
=27	=27	=27	=27	=27	=27	=27	=27	=27	=27	=27
(8D\L	(8D\L	(8D\L	4a\	4dd\	4ff\	(4.ff\	(8D\L	4a/	4ff\	8.dd\L
8D\	8D\	8D\	.	.	.	.	8D\	.	.	.
.	.	.	.	.	.	.	.	.	.	(16ee-\Jk
8E\	8E\	8E\	4r	4r	4r	.	8E\	4g/	4b-\	16dd/LL
.	.	.	.	.	.	.	.	.	.	32cc/LLL
.	.	.	.	.	.	.	.	.	.	32b-/
8E\	8E\	8E\	.	.	.	8een\)	8E\	.	.	32a/
.	.	.	.	.	.	.	.	.	.	32g/
.	.	.	.	.	.	.	.	.	.	32f#/
.	.	.	.	.	.	.	.	.	.	32g/JJJ
8F#\	8F#\	8F#\	4r	4r	4r	(8ee-\L	8F#\	4d/	4a/	16a/LL
.	.	.	.	.	.	.	.	.	.	32b-/LLL
.	.	.	.	.	.	.	.	.	.	32cc/JJJ
8F#\J)	8F#\J)	8F#\J)	.	.	.	8dd\J)	8F#\J)	.	.	16b-/
.	.	.	.	.	.	.	.	.	.	32cc/LLL
.	.	.	.	.	.	.	.	.	.	32a/JJJ)
=28	=28	=28	=28	=28	=28	=28	=28	=28	=28	=28
(8G\L	(8G\L	(8G\L	4b-\	4gg\	4dd\	4dd\	(8G\L	4d/	4g/	(4.b-/
8G\	8G\	8G\	.	.	.	.	8G\	.	.	.
8A\	8A\	8A\	2dd\	2ff\	[2ddd\	[2ddd\	8A\	4r	4r	.
8A\	8A\	8A\	.	.	.	.	8A\	.	.	8a/)
8Bn\	8Bn\	8Bn\	.	.	.	.	8Bn\	4r	4r	(8a-/L
8B\J)	8B\J)	8B\J)	.	.	.	.	8B\J)	.	.	8g/J)
=29	=29	=29	=29	=29	=29	=29	=29	=29	=29	=29
(8F\L	(8F\L	(8F\L	4bn\	4dd\	4ddd\]	16ddd\LL]	(8F\L	4d/	4bn\	4g/
.	.	.	.	.	.	16ccc#\	.	.	.	.
8F\	8F\	8F\	.	.	.	(16ddd\	8F\	.	.	.
.	.	.	.	.	.	16bbn\JJ)	.	.	.	.
8E\	8E\	8E\	4g\	4ee\	8ccc\L	(16ccc\LL	8E\	(8g/L	(8ee\L	[4gg\
.	.	.	.	.	.	16aan\)	.	.	.	.
8E\	8E\	8E\	.	.	8bb-\J	(16bb-\	8E\	8e/J)	8cc#\J)	.
.	.	.	.	.	.	16gg#\JJ)	.	.	.	.
8D\	8D\	8D\	4dd\	4a/	[4aa\	[4aan\	8D\	4a/	(8dd\L	16gg\LL]
.	.	.	.	.	.	.	.	.	.	(16ee\
8D\J)	8D\J)	8D\J)	.	.	.	.	8D\J)	.	8a\J)	16ff\
.	.	.	.	.	.	.	.	.	.	16dd\JJ)
=30	=30	=30	=30	=30	=30	=30	=30	=30	=30	=30
(8G\L	(8G\L	(8G\L	4b-\	4g/	8aa\L]	8aan\L]	(8G\L	(8g/L	(8b-\L	(16ee-\LL
.	.	.	.	.	.	.	.	.	.	16cc#\
8G\	8G\	8G\	.	.	8bb-\J	8bb-\J	8G\	8f/J)	8dd\J)	16dd\
.	.	.	.	.	.	.	.	.	.	16ee\JJ)
8A\	8A\	8A\	4a\	4g/	4.eet\	4.eent\	8A\	4e/	4a/	4.cc#t\
8A\	8A\	8A\	.	.	.	.	8A\	.	.	.
8AA\	8AA\	8AA\	4a\	4g/	.	.	8AA\	4e/	4a/	.
8AA\J)	8AA\J)	8AA\J)	.	.	8dd\	8dd\	8AA\J)	.	.	8dd\
=31	=31	=31	=31	=31	=31	=31	=31	=31	=31	=31
[4D\	[4D\	[4D\	4a\	4f/	4dd\	4dd\	4D\	(8f/L	(8a/L	(8dd\L
.	.	.	.	.	.	.	.	8e/J)	8g/J)	8cc#\J)
8D\L]	8D\L]	8D\L]	(8a\L	(8dd\L	(8ff\L	(8ff\L	8D\L	4f/	4a/	4dd\
(16E-\LL	(16E-\LL	(16E-\LL	8g\J)	8cc#\J)	8ee\J)	8een\J)	(16E-\LL	.	.	.
16D\JJ	16D\JJ	16D\JJ	.	.	.	.	16D\JJ	.	.	.
16C/LL	16C/LL	16C/LL	4a\	4dd\	4ff\	4ff\	16C/LL	4r	4r	4r
16BB-/	16BB-/	16BB-/	.	.	.	.	16BB-/	.	.	.
16AA/	16AA/	16AA/	.	.	.	.	16AA/	.	.	.
32C/LLL	32C/LLL	32C/LLL	.	.	.	.	32C/LLL	.	.	.
32BB-/JJJ)	32BB-/JJJ)	32BB-/JJJ)	.	.	.	.	32BB-/JJJ)	.	.	.
=32	=32	=32	=32	=32	=32	=32	=32	=32	=32	=32
[4C/	[4C/	[4C/	4r	4r	4r	4r	[4C/	(8f#/L	(8a/L	(8dd\L
.	.	.	.	.	.	.	.	8e/J)	8g/J)	8cc\J)
8C/L]	8C/L]	8C/L]	(8a\L	(8dd\L	(8ff#\L	(8ff#\L	8C/L]	4f#/	4a/	4dd\
(16D/LL	(16D/LL	(16D/LL	8g\J)	8cc\J)	8ee\J)	8een\J)	(16D/LL	.	.	.
16E-/JJ	16E-/JJ	16E-/JJ	.	.	.	.	16E-/JJ	.	.	.
16D/LL	16D/LL	16D/LL	4a\	4dd\	4ff#\	4ff#\	16D/LL	4r	4r	4r
16C/	16C/	16C/	.	.	.	.	16C/	.	.	.
16BB-/	16BB-/	16BB-/	.	.	.	.	16BB-/	.	.	.
32C/LLL	32C/LLL	32C/LLL	.	.	.	.	32C/LLL	.	.	.
32AA/JJJ)	32AA/JJJ)	32AA/JJJ)	.	.	.	.	32AA/JJJ)	.	.	.
=33	=33	=33	=33	=33	=33	=33	=33	=33	=33	=33
[4BB-/	[4BB-/	[4BB-/	4r	4r	4r	4r	[4BB-/	(8g/L	(8b-/L	(8dd\L
.	.	.	.	.	.	.	.	8f#/J)	8a/J)	8cc\J)
16BB-/LL]	16BB-/LL]	16BB-/LL]	(8b-\L	(8dd\L	(8gg\L	(8gg\L	16BB-/LL]	4g/	4b-\	4dd\
(16C/	(16C/	(16C/	.	.	.	.	(16C/	.	.	.
16BB-/	16BB-/	16BB-/	8a\J)	8cc\J)	8ff#\J)	8ff#\J)	16BB-/	.	.	.
16AA/JJ	16AA/JJ	16AA/JJ	.	.	.	.	16AA/JJ	.	.	.
16GG/LL	16GG/LL	16GG/LL	4b-\	4dd\	4gg\	4gg\	16GG/LL	4r	4r	4r
16AA/	16AA/	16AA/	.	.	.	.	16AA/	.	.	.
16FF#/	16FF#/	16FF#/	.	.	.	.	16FF#/	.	.	.
16GG/JJ)	16GG/JJ)	16GG/JJ)	.	.	.	.	16GG/JJ)	.	.	.
=34	=34	=34	=34	=34	=34	=34	=34	=34	=34	=34
2CC#/	2CC#/	2CC#/	2b-\	2ee\	2gg\	2gg\	2CC#/	2e/	2g/	[4bb-\
.	.	.	.	.	.	.	.	.	.	32bb-\LLL]
.	.	.	.	.	.	.	.	.	.	(32aa\
.	.	.	.	.	.	.	.	.	.	32gg\
.	.	.	.	.	.	.	.	.	.	32ff\
.	.	.	.	.	.	.	.	.	.	32ee\
.	.	.	.	.	.	.	.	.	.	32dd\
.	.	.	.	.	.	.	.	.	.	32cc#\
.	.	.	.	.	.	.	.	.	.	32dd\JJJ
4r	4r	4r	4r	4r	4r	4r	4r	4r	4r	32ee\LLL
.	.	.	.	.	.	.	.	.	.	32a\
.	.	.	.	.	.	.	.	.	.	32bn\
.	.	.	.	.	.	.	.	.	.	32cc#\
.	.	.	.	.	.	.	.	.	.	32dd\
.	.	.	.	.	.	.	.	.	.	32ee\
.	.	.	.	.	.	.	.	.	.	32ff\
.	.	.	.	.	.	.	.	.	.	64gg\LLLL
.	.	.	.	.	.	.	.	.	.	64ee\JJJJ)
=35	=35	=35	=35	=35	=35	=35	=35	=35	=35	=35
8DD/L	8DD/L	8DD/L	8d/L	8f/L	8.a/L	8.an/L	8DD/L	(8a/L	(8dd\L	8.ff\LJJJ
(8GG/	(8GG/	(8GG/	8d/	8e/	.	.	(8GG/	8g/J)	8b-\J)	.
.	.	.	.	.	16b-/Jk	16b-/Jk	.	.	.	16gg\Jk
8AA/	8AA/	8AA/	8A/	8f/	(4f/	(4f/	8AA/	(8f/L	4a/	4.cc#t\
8AA/	8AA/	8AA/	8Bn/J	8g/J	.	.	8AA/	8d/J)	.	.
8AA/	8AA/	8AA/	4c#/	4a/	8.et/L)	8.ent/L)	8AA/	4e/	4gT/	.
8AA/J)	8AA/J)	8AA/J)	.	.	.	.	8AA/J)	.	.	8dd\
.	.	.	.	.	16d/Jk	16d/Jk	.	.	.	.
=36	=36	=36	=36	=36	=36	=36	=36	=36	=36	=36
4D\	4D\	4D\	2r	2r	2r	2r	4D\	4r	4r	4r
4r	4r	4r	.	.	.	.	4r	4d/	4f/	4b-\
4r	4r	4r	4Bn/	4e/	4g#/	4g#/	4r	4r	4r	4r
=37	=37	=37	=37	=37	=37	=37	=37	=37	=37	=37
4C/	4C/	4C/	2r	2r	2r	2r	4C/	4r	4r	4r
4r	4r	4r	.	.	.	.	4r	4c/	4e/	4a/
4r	4r	4r	4a\	4ee-\	4ff#\	4ff#\	4r	4r	4r	4r
=38	=38	=38	=38	=38	=38	=38	=38	=38	=38	=38
4BB-/	4BB-/	4BB-/	2r	2r	2r	2r	4BB-/	4r	4r	4r
4r	4r	4r	.	.	.	.	4r	4b-\	4g/	4dd\
4r	4r	4r	4dd\	(8ff\L	4gg#\	4gg#\	4r	4r	4r	4r
.	.	.	.	8ee\J)	.	.	.	.	.	.
=39	=39	=39	=39	=39	=39	=39	=39	=39	=39	=39
2.AA/	2.AA/	2.AA/	2.cc#;\	2.ee;\	2.aa;\	2.aan;\	2.AA;/	2.e;/	2.a;/	2.cc#;\
==	==	==	==	==	==	==	==	==	==	==
*-	*-	*-	*-	*-	*-	*-	*-	*-	*-	*-
!!!CDT: 1685/3//-1750/7/28
!!!OCY: Deutschland
!!!ODE: His Royal Highness Christian Ludwig, Margrave of Brandenburg.
!!!ODT: 1717//
!!!OPC: ?Coethen; ?Cothen; ?Co2then
!!!PPR: Peters
!!!PDT: 1850
!!!PPP: Leipzig
!!!AGN: concerto grosso
!!!AST: baroque, orchestral
!!!AMT: simple triple
!!!SCA: Bach-Werke-Verzeichnis
!!!YOR: Bach Gesellschaft, xix,1
!!!YOY: 1871; although imprint says 1869
!!!AIN: cbass; cello; cemba; cont; fagot; oboe; viola; violn; violp
!!!EEV: 1.0
!!!RDT: 1994 February 19
!!!YER: 1994 October 22
!!!YEN: United States of America
!!!EFL: 2/7
!!!EED: W.B. Hewlett
!!!VTS: 383531448
